X:249
T:The Providence
R:Reel
S:My arrangement from various sources
Z:Transcription, arrangement, chords:Mike Long
M:C|
L:1/8
K:D
"A"~E2EF "G"DEFA|"D"~d2fd gdfd|"G"edBd "D"(3(ABc) dA|"G"BdAG "D"FDDF|\
"A"~E2EF "G"DEFA|
"D"~d2fd gdfd|"G"edBd "A"~A2FA|[1 "G"(3(Bcd) AG "D"FDDF:|[2 "G"BdAG "D"FD D2\
|:"D"fd~d2 fdgd|"D"fd~d2 "A"ecAe|
"D"fd~d2 "G"gfed|"A"ceag "D"fdde|\
"D"fgaf "A"gfec|"G"dBAF G2FG|"D"~A2FA ABde|"A"faeg "D"fdd2:|
